storybook/icons/teaser/networking-group-blue.svg

<svg width="87" height="86" viewBox="0 0 87 86" fill="none" xmlns="http://www.w3.org/2000/svg">
<g clip-path="url(#clip0)">
<path d="M43.3798 17.5975C47.9624 17.5975 51.6905 13.8693 51.6905 9.2868C51.6905 4.70427 47.9624 0.976074 43.3798 0.976074C38.7973 0.976074 35.0691 4.70427 35.0691 9.2868C35.0691 13.8693 38.7973 17.5975 43.3798 17.5975ZM43.3798 5.13144C45.6711 5.13144 47.5352 6.99553 47.5352 9.2868C47.5352 11.5781 45.6711 13.4422 43.3798 13.4422C41.0886 13.4422 39.2245 11.5781 39.2245 9.2868C39.2245 6.99553 41.0883 5.13144 43.3798 5.13144Z" fill="#0678BE"/>
<path d="M30.9139 36.2968C32.0612 36.2968 32.9915 35.3666 32.9915 34.2191C32.9915 28.4909 37.6518 23.8307 43.38 23.8307C49.1081 23.8307 53.7684 28.4909 53.7684 34.2191C53.7684 35.3666 54.6988 36.2968 55.8461 36.2968C56.9933 36.2968 57.9237 35.3666 57.9237 34.2191C57.9237 26.1996 51.3994 19.6753 43.38 19.6753C35.3605 19.6753 28.8362 26.1996 28.8362 34.2191C28.8362 35.3666 29.7664 36.2968 30.9139 36.2968Z" fill="#0678BE"/>
<path d="M15.2165 66.3774C19.799 66.3774 23.5272 62.6492 23.5272 58.0667C23.5272 53.4842 19.799 49.756 15.2165 49.756C10.634 49.756 6.90576 53.4842 6.90576 58.0667C6.90576 62.6492 10.634 66.3774 15.2165 66.3774ZM15.2165 53.9113C17.5078 53.9113 19.3719 55.7754 19.3719 58.0667C19.3719 60.358 17.5078 62.2221 15.2165 62.2221C12.9252 62.2221 11.0611 60.358 11.0611 58.0667C11.0611 55.7754 12.9252 53.9113 15.2165 53.9113Z" fill="#0678BE"/>
<path d="M15.2166 68.455C7.19719 68.455 0.672852 74.9793 0.672852 82.9987C0.672852 84.1462 1.60324 85.0764 2.75053 85.0764C3.89783 85.0764 4.82822 84.1462 4.82822 82.9987C4.82822 77.2706 9.48846 72.6103 15.2166 72.6103C20.9448 72.6103 25.605 77.2706 25.605 82.9987C25.605 84.1462 26.5354 85.0764 27.6827 85.0764C28.83 85.0764 29.7604 84.1462 29.7604 82.9987C29.7604 74.9793 23.2361 68.455 15.2166 68.455Z" fill="#0678BE"/>
<path d="M71.5429 66.3774C76.1254 66.3774 79.8536 62.6492 79.8536 58.0667C79.8536 53.4842 76.1254 49.756 71.5429 49.756C66.9604 49.756 63.2322 53.4842 63.2322 58.0667C63.2322 62.6492 66.9604 66.3774 71.5429 66.3774ZM71.5429 53.9113C73.8342 53.9113 75.6983 55.7754 75.6983 58.0667C75.6983 60.358 73.8342 62.2221 71.5429 62.2221C69.2516 62.2221 67.3875 60.358 67.3875 58.0667C67.3875 55.7754 69.2514 53.9113 71.5429 53.9113Z" fill="#0678BE"/>
<path d="M71.543 68.455C63.5236 68.455 56.9993 74.9793 56.9993 82.9987C56.9993 84.1462 57.9297 85.0764 59.0769 85.0764C60.2242 85.0764 61.1546 84.1462 61.1546 82.9987C61.1546 77.2706 65.8149 72.6103 71.543 72.6103C77.2712 72.6103 81.9315 77.2706 81.9315 82.9987C81.9315 84.1462 82.8618 85.0764 84.0091 85.0764C85.1564 85.0764 86.0868 84.1462 86.0868 82.9987C86.0868 74.9793 79.5623 68.455 71.543 68.455Z" fill="#0678BE"/>
<path d="M56.294 57.4329L45.4574 51.1764V38.6631C45.4574 37.5156 44.527 36.5854 43.3797 36.5854C42.2324 36.5854 41.302 37.5156 41.302 38.6631V51.1764L30.4655 57.4329C29.4717 58.0066 29.1312 59.2773 29.705 60.271C30.2789 61.2648 31.5498 61.6053 32.5432 61.0315L43.3797 54.7749L54.2163 61.0315C54.5435 61.2203 54.9007 61.3101 55.2531 61.3101C55.9711 61.3101 56.6696 60.9375 57.0544 60.271C57.6283 59.2773 57.2877 58.0066 56.294 57.4329Z" fill="#0678BE"/>
</g>
<defs>
<clipPath id="clip0">
<rect width="85.4139" height="85.4139" fill="white" transform="translate(0.672852 0.319336)"/>
</clipPath>
</defs>
</svg>

<svg width="87" height="86" fill="none" xmlns="http://www.w3.org/2000/svg"><g clip-path="url(#clip0)" fill="#0678BE"><path d="M43.38 17.598c4.582 0 8.31-3.729 8.31-8.311 0-4.583-3.728-8.31-8.31-8.31-4.583 0-8.31 3.727-8.31 8.31 0 4.582 3.727 8.31 8.31 8.31zm0-12.467a4.16 4.16 0 014.155 4.156 4.16 4.16 0 01-4.155 4.155 4.16 4.16 0 01-4.156-4.155A4.16 4.16 0 0143.38 5.13zM30.914 36.297c1.147 0 2.078-.93 2.078-2.078 0-5.728 4.66-10.388 10.388-10.388s10.388 4.66 10.388 10.388a2.078 2.078 0 004.156 0c0-8.02-6.525-14.544-14.544-14.544-8.02 0-14.544 6.525-14.544 14.544 0 1.148.93 2.078 2.078 2.078zM15.216 66.377c4.583 0 8.311-3.728 8.311-8.31 0-4.583-3.728-8.311-8.31-8.311-4.583 0-8.311 3.728-8.311 8.31 0 4.583 3.728 8.311 8.31 8.311zm0-12.466a4.16 4.16 0 014.156 4.156 4.16 4.16 0 01-4.155 4.155 4.16 4.16 0 01-4.156-4.155 4.16 4.16 0 014.155-4.156zM15.217 68.455c-8.02 0-14.544 6.524-14.544 14.544a2.078 2.078 0 004.155 0c0-5.728 4.66-10.389 10.389-10.389 5.728 0 10.388 4.66 10.388 10.389a2.078 2.078 0 004.155 0c0-8.02-6.524-14.544-14.543-14.544zM71.543 66.377c4.582 0 8.31-3.728 8.31-8.31 0-4.583-3.728-8.311-8.31-8.311-4.583 0-8.31 3.728-8.31 8.31 0 4.583 3.727 8.311 8.31 8.311zm0-12.466a4.16 4.16 0 014.155 4.156 4.16 4.16 0 01-4.155 4.155 4.16 4.16 0 01-4.156-4.155 4.16 4.16 0 014.156-4.156zM71.543 68.455c-8.02 0-14.544 6.524-14.544 14.544a2.078 2.078 0 004.156 0c0-5.728 4.66-10.389 10.388-10.389S81.931 77.27 81.931 83a2.078 2.078 0 004.156 0c0-8.02-6.525-14.544-14.544-14.544zM56.294 57.433l-10.837-6.257V38.663a2.078 2.078 0 00-4.155 0v12.513l-10.837 6.257a2.078 2.078 0 102.078 3.599l10.837-6.257 10.836 6.257a2.077 2.077 0 102.078-3.599z"/></g><defs><clipPath id="clip0"><path fill="#fff" transform="translate(.673 .32)" d="M0 0h85.414v85.414H0z"/></clipPath></defs></svg>
